packages/merlin-www-assets/imports/houseandgarden/icons/figure-linkedin.svg

<svg xmlns="http://www.w3.org/2000/svg" viewBox="0 0 20 20"><title>figure-linkedin</title><path d="M18.5 0h-17A1.45 1.45 0 0 0 0 1.4v17.22A1.41 1.41 0 0 0 1.44 20H18.5a1.45 1.45 0 0 0 1.5-1.4V1.5A1.45 1.45 0 0 0 18.6 0h-.1zM5.88 17H3V7.5h3V17zM4.5 6.25A1.79 1.79 0 0 1 2.75 4.5a1.71 1.71 0 0 1 1.67-1.75h.08a1.71 1.71 0 0 1 1.75 1.67v.08A2 2 0 0 1 4.5 6.25zM17 17h-3v-4.63c0-1.12 0-2.5-1.5-2.5s-1.75 1.25-1.75 2.5v4.75h-3V7.5h2.87v1.25a3 3 0 0 1 2.75-1.5c3 0 3.5 2 3.5 4.5V17z"/></svg>

<svg id="Layer_65" data-name="Layer 65" xmlns="http://www.w3.org/2000/svg" viewBox="0 0 20 20"><defs><style>.cls-1{fill:#010101;}</style></defs><title>figure-linkedin</title><path class="cls-1" d="M18.5,0H1.5A1.45,1.45,0,0,0,0,1.4s0,.07,0,.1V18.62A1.41,1.41,0,0,0,1.45,20H18.5A1.45,1.45,0,0,0,20,18.6s0-.07,0-.1V1.5A1.45,1.45,0,0,0,18.6,0ZM5.88,17H3V7.5H6V17ZM4.5,6.25A1.79,1.79,0,0,1,2.75,4.5,1.71,1.71,0,0,1,4.42,2.75H4.5A1.71,1.71,0,0,1,6.25,4.42s0,.05,0,.08A2,2,0,0,1,4.5,6.25ZM17,17H14V12.37c0-1.12,0-2.5-1.5-2.5s-1.75,1.25-1.75,2.5v4.75h-3V7.5h2.87V8.75h0a3,3,0,0,1,2.75-1.5c3,0,3.5,2,3.5,4.5V17Z"/></svg>
